X:1
T: Boiled Goat's MIlk
C:
R:Jig
Q:180
K:G
M:6/8
L:1/16
dc|B2G2A2 B4d2|c2A2G2 A4B2|c2A2F2 G4B2|d2e2f2 g2d2c2|B2G2A2 B4d2|c2A2G2 A4c2|Bcd2B2 c2A2F2|A2G2G2 G4dc|
B2G2A2 B4d2|c2A2G2 A4B2|c2A2F2 G4B2|d2e2f2 g2d2c2|B2G2A2 B4d2|c2A2G2 A4c2|Bcd2B2 c2A2F2|A2G2G2 G4d2|
gfe2g2 f2d2c2|B2A2B2 d2B2G2|g2a2g2 f2d2c2|B2A2B2 d2e2f2|gfe2g2 f2d2c2|B2A2B2 d2B2G2|Bcd2B2 c2A2F2|A2G2G2 G4d2|
gfe2g2 f2d2c2|B2A2B2 d2B2G2|g2a2g2 f2d2c2|B2A2B2 d2e2f2|gfe2g2 f2d2c2|B2A2B2 d2B2G2|Bcd2B2 c2A2F2|A2G2G2 G4||
